dist/svgs/support-full.svg

<!-- Generated by IcoMoon.io -->
<svg version="1.1" xmlns="http://www.w3.org/2000/svg" width="24" height="24" viewBox="0 0 24 24">
<title>support-full</title>
<path d="M20.99 7.806c-0.104-4.321-3.644-7.806-7.99-7.806h-2c-4.346 0-7.886 3.485-7.99 7.806-1.796 1.038-3.010 2.975-3.010 5.194 0 2.215 1.21 4.149 3 5.188v0.812c0 2.757 2.243 5 5 5h4c0.552 0 1-0.448 1-1s-0.448-1-1-1h-4c-1.654 0-3-1.346-3-3v-0.090c0.326 0.055 0.659 0.090 1 0.090 0.4 0 0.804-0.041 1.198-0.121 0.467-0.094 0.802-0.504 0.802-0.98v-9.798c0-0.476-0.335-0.886-0.802-0.98-0.394-0.080-0.798-0.121-1.198-0.121-0.314 0-0.62 0.032-0.922 0.078 0.446-2.871 2.928-5.078 5.922-5.078h2c2.994 0 5.476 2.207 5.922 5.078-0.302-0.046-0.608-0.078-0.922-0.078-0.4 0-0.804 0.041-1.198 0.121-0.467 0.094-0.802 0.504-0.802 0.98v9.799c0 0.476 0.335 0.886 0.802 0.98 0.394 0.079 0.798 0.12 1.198 0.12 3.309 0 6-2.691 6-6 0-2.219-1.214-4.156-3.010-5.194z"></path>
</svg>

<svg xmlns="http://www.w3.org/2000/svg" width="24" height="24" viewBox="0 0 24 24"><title>support-full</title><path d="M20.99 7.806C20.886 3.485 17.346 0 13 0h-2C6.654 0 3.114 3.485 3.01 7.806A5.999 5.999 0 0 0 0 13a5.999 5.999 0 0 0 3 5.188V19c0 2.757 2.243 5 5 5h4a1 1 0 0 0 0-2H8c-1.654 0-3-1.346-3-3v-.09c.326.055.659.09 1 .09.4 0 .804-.041 1.198-.121a1 1 0 0 0 .802-.98V8.101a1 1 0 0 0-.802-.98A6.041 6.041 0 0 0 6 7a6.1 6.1 0 0 0-.922.078C5.524 4.207 8.006 2 11 2h2c2.994 0 5.476 2.207 5.922 5.078A6.1 6.1 0 0 0 18 7c-.4 0-.804.041-1.198.121a1 1 0 0 0-.802.98V17.9a1 1 0 0 0 .802.98A6.006 6.006 0 0 0 24 13a5.999 5.999 0 0 0-3.01-5.194z"/></svg>
